X:8
T:Retreat Set #2
C:J. MacLeod
L:1/8
M:3/4
Q:1/4=56
K:D
T:Green Hills of Tyrol
|:{/g}A3/2B/2{/GdG}c2{/gcd}c1{/e}A1|{/g}c1{/Gdc}d1{/gef}e2{/A}e1f1|{/gcd}c1f1 {/gef}e3/2c/2{/g}B2|{/GdGe}B1f1 {/gef}e3/2c/2{/G}A2|!
{/g}A3/2B/2{/GdG}c2{/gcd}c1{/e}A1|{/g}c1{/Gdc}d1{/gef}e2{/A}e1f1|{/gcd}c1f1 {/gef}e3/2c/2{/g}B2|{/GdGe}B1A1 {/gcd}c3/2B/2{/G}A2:|!
|:{/gcd}c1e1{/ag}a2{/g}a2|{/f}g1f1 {/gfg}f1e1{/A}e2|{/g}e3/2f/2 {/gef}e1d1{/gdG}d2|{/g}d3/2e/2 {/gde}d1c1{/GdG}c2|!
{/gcd}c1e1{/ag}a2{/g}a2|{/f}g1f1 {/gfg}f1e1{/A}e2|{/g}e3/2f/2{/gef}e2{/A}e3/2d/2|{/g}c3/2d/2{/gef}e2{/A}e2:|!
T:When the Battle's O'er
|:{/g}A3/2B/2{/GdG}c2{/ag}a2|{/fg}f1e1{/gcd}c2{/G}A2|{/g}A3/2B/2{/GdG}c2 {/gef}e3/2c/2|{/gBd}B1{/G}A1{/GdG}B4|!
{/g}A3/2B/2{/GdG}c2{/ag}a2|{/fg}f1e1{/gcd}c2{/G}A2|{/g}A3/2B/2{/GdG}c2{/gef}e3/2c/2|{/g}B3/2c/2{/G}A4:|!
|:
{/gef}e3/2c/2{/gBd}B2{/G}A2|{/ag}a3/2g/2{/fg}f2{/g}e2|{/g}A3/2B/2{/GdG}c2{/gef}e3/2c/2|{/gBd}B1{/G}A1{/GdG}B4|!
{/gef}e3/2c/2{/gBd}B2{/G}A2|{/ag}a3/2g/2{/fg}f2{/g}e2|{/g}A3/2B/2{/GdG}c2{/gef}e3/2c/2|{/g}B3/2c/2{/G}A4:|
